src/pos-icons/ski-cross-country.svg

<svg height="24" viewBox="0 0 24 24" width="24" xmlns="http://www.w3.org/2000/svg"><path d="m15 1.2c1 0 1.8.8 1.8 1.8s-.8 1.8-1.8 1.8-1.8-.8-1.8-1.8.8-1.8 1.8-1.8m-4 21.8v-1.3h-1.7l2.4-6.8 2.3 3.1v3.7h-1v1.3h7v-1.3h-4.2v-5.2l-2.5-4.5.7-2.8 1.1 1.8h4.9v-1.9h-3.6l-2-3.3c-.3-.5-.9-.8-1.5-.8-.2 0-.3.1-.5.1l-5.4 1.7v5.2h1.8v-3.7l2.2-.6-3.6 14h-3.4v1.3"/></svg>

<?xml version="1.0" encoding="UTF-8"?><!DOCTYPE svg PUBLIC "-//W3C//DTD SVG 1.1//EN" "http://www.w3.org/Graphics/SVG/1.1/DTD/svg11.dtd"><svg xmlns="http://www.w3.org/2000/svg" xmlns:xlink="http://www.w3.org/1999/xlink" version="1.1" id="mdi-ski-cross-country" width="24" height="24" viewBox="0 0 24 24"><path d="M15 1.2C16 1.2 16.8 2 16.8 3S16 4.8 15 4.8 13.2 4 13.2 3 14 1.2 15 1.2M11 23V21.7H9.3L11.7 14.9L14 18V21.7H13V23H20V21.7H15.8V16.5L13.3 12L14 9.2L15.1 11H20V9.1H16.4L14.4 5.8C14.1 5.3 13.5 5 12.9 5C12.7 5 12.6 5.1 12.4 5.1L7 6.8V12H8.8V8.3L11 7.7L7.4 21.7H4V23" /></svg>
